public/icons/weather-icons/Mist.svg

<svg width="200" height="200" viewBox="0 0 200 200" fill="none" xmlns="http://www.w3.org/2000/svg">
<g filter="url(#filter0_d_1506_812)">
<path fill-rule="evenodd" clip-rule="evenodd" d="M98.555 91.9128C96.3208 92.7777 94.4382 93.8403 93.3834 94.5848C91.1274 96.1773 88.0076 95.6394 86.4151 93.3834C84.8227 91.1274 85.3606 88.0076 87.6166 86.4152C89.3951 85.1597 92.0125 83.7223 94.945 82.5872C97.8576 81.4597 101.414 80.5 105 80.5C109.406 80.5 112.333 82.3529 114.253 83.5686C114.36 83.6366 114.465 83.7026 114.566 83.7662C116.358 84.8919 117.46 85.5 119.5 85.5C121.754 85.5 123.608 84.731 126.014 83.5279C126.216 83.4266 126.433 83.3157 126.663 83.1981C128.753 82.1278 131.933 80.5 135.5 80.5C139.131 80.5 142.431 82.1715 144.593 83.2665C144.774 83.3581 144.947 83.4457 145.111 83.5279C147.691 84.818 149.33 85.5 151 85.5C152.224 85.5 154.18 84.986 156.289 84.0526C157.279 83.6148 158.174 83.1413 158.877 82.7134C159.227 82.5001 159.506 82.3128 159.71 82.1627C159.896 82.0265 159.972 81.9566 159.972 81.9569C159.972 81.9569 159.972 81.9573 159.971 81.9581C161.924 80.0118 165.085 80.014 167.036 81.9645C168.988 83.9171 168.988 87.0829 167.036 89.0355C165.544 90.5268 162.869 92.0765 160.336 93.1974C157.737 94.3474 154.276 95.5 151 95.5C146.694 95.5 143.099 93.7022 140.68 92.4924L140.639 92.4721C137.769 91.0372 136.565 90.5 135.5 90.5C134.459 90.5 133.441 90.9947 130.486 92.4721C127.892 93.769 124.246 95.5 119.5 95.5C114.54 95.5 111.434 93.6081 109.246 92.2338C107.177 90.934 106.43 90.5 105 90.5C103.086 90.5 100.809 91.0403 98.555 91.9128Z" fill="white"/>
<path fill-rule="evenodd" clip-rule="evenodd" d="M88.055 137.913C85.8208 138.778 83.9382 139.84 82.8834 140.585C80.6274 142.177 77.5076 141.639 75.9151 139.383C74.3227 137.127 74.8606 134.008 77.1166 132.415C78.8951 131.16 81.5125 129.722 84.445 128.587C87.3576 127.46 90.9144 126.5 94.5 126.5C98.9058 126.5 101.833 128.353 103.753 129.569C103.86 129.637 103.965 129.703 104.066 129.766C105.858 130.892 106.96 131.5 109 131.5C111.254 131.5 113.108 130.731 115.514 129.528C115.716 129.427 115.933 129.316 116.163 129.198C118.253 128.128 121.433 126.5 125 126.5C128.631 126.5 131.931 128.172 134.093 129.267C134.274 129.358 134.447 129.446 134.611 129.528C137.191 130.818 138.83 131.5 140.5 131.5C141.724 131.5 143.68 130.986 145.789 130.053C146.779 129.615 147.674 129.141 148.377 128.713C148.727 128.5 149.006 128.313 149.21 128.163C149.396 128.027 149.472 127.957 149.472 127.957C149.472 127.957 149.472 127.957 149.471 127.958C151.424 126.012 154.585 126.014 156.536 127.964C158.488 129.917 158.488 133.083 156.536 135.036C155.044 136.527 152.369 138.077 149.836 139.197C147.237 140.347 143.776 141.5 140.5 141.5C136.194 141.5 132.599 139.702 130.18 138.492L130.139 138.472C127.269 137.037 126.065 136.5 125 136.5C123.959 136.5 122.941 136.995 119.986 138.472C117.392 139.769 113.746 141.5 109 141.5C104.04 141.5 100.934 139.608 98.7461 138.234C96.6773 136.934 95.9305 136.5 94.5 136.5C92.5856 136.5 90.309 137.04 88.055 137.913Z" fill="white"/>
<path fill-rule="evenodd" clip-rule="evenodd" d="M144.129 58.1001C146.283 59.8283 146.628 62.9752 144.9 65.1291C143.368 67.0378 140.467 69.1655 137.587 70.7533C134.705 72.3429 130.761 74 126.959 74C122.016 74 117.942 71.4605 115.287 69.8052L115.188 69.7435C115.074 69.6728 114.963 69.6036 114.855 69.5357C113.516 68.7005 112.509 68.0723 111.529 67.6025C110.511 67.1146 109.913 67 109.548 67C109.201 67 108.651 67.104 107.683 67.5802C106.826 68.0017 105.978 68.5338 104.836 69.2504C104.588 69.4058 104.327 69.5699 104.048 69.7435C101.196 71.521 97.0452 74 91.5753 74C85.8432 74 82.3196 71.2824 79.9625 69.4368C77.5415 67.541 76.7354 67 75.2876 67C73.2411 67 70.7391 67.725 68.1931 68.9533C65.6864 70.1627 63.5417 71.6639 62.3026 72.754C60.2293 74.578 57.07 74.3759 55.2459 72.3027C53.4219 70.2294 53.624 67.07 55.6973 65.246C57.6409 63.5361 60.5509 61.5373 63.8479 59.9467C67.1055 58.375 71.156 57 75.2876 57C80.3577 57 83.6737 59.6231 85.7542 61.2688C85.8834 61.371 86.0078 61.4695 86.1276 61.5632C88.2404 63.2176 89.4443 64 91.5753 64C93.9684 64 95.9956 62.979 98.7596 61.2565C98.957 61.1335 99.1642 61.0031 99.3796 60.8675C100.524 60.147 101.901 59.2802 103.269 58.6073C104.969 57.771 107.087 57 109.548 57C111.991 57 114.131 57.7604 115.851 58.585C117.364 59.3102 118.851 60.2401 120.082 61.0099C120.216 61.0942 120.348 61.1765 120.477 61.2565C123.44 63.1035 125.224 64 126.959 64C128.211 64 130.352 63.3237 132.758 61.9967C135.168 60.6678 136.759 59.2956 137.1 58.8709C138.828 56.7171 141.975 56.372 144.129 58.1001Z" fill="white"/>
<path fill-rule="evenodd" clip-rule="evenodd" d="M118.033 104.025C120.229 105.701 120.65 108.838 118.975 111.033C117.508 112.955 114.727 115.099 111.965 116.701C109.218 118.293 105.387 120 101.644 120C96.809 120 92.8501 117.405 90.3487 115.765C90.3061 115.737 90.264 115.71 90.2223 115.682C90.1164 115.613 90.0129 115.545 89.9114 115.479C88.631 114.639 87.6872 114.02 86.7721 113.559C85.8239 113.081 85.3255 113 85.0822 113C84.8577 113 84.4062 113.069 83.5059 113.535C82.707 113.948 81.9161 114.47 80.8306 115.186C80.5939 115.342 80.3433 115.507 80.0756 115.682C77.377 117.45 73.3386 120 67.9863 120C62.3602 120 58.9178 117.191 56.6945 115.36C54.3521 113.432 53.6854 113 52.4931 113C50.6509 113 48.3413 113.691 45.9397 114.909C43.5833 116.104 41.5621 117.591 40.3949 118.671C38.3677 120.546 35.2043 120.422 33.3293 118.395C31.4543 116.368 31.5777 113.204 33.605 111.329C35.4652 109.609 38.2523 107.596 41.4163 105.991C44.5353 104.409 48.4586 103 52.4931 103C57.4777 103 60.7272 105.706 62.6858 107.338C62.8125 107.443 62.9338 107.544 63.0499 107.64C65.0784 109.309 66.1329 110 67.9863 110C70.1133 110 71.9517 109.05 74.5956 107.318C74.781 107.196 74.9765 107.067 75.1803 106.932C76.268 106.212 77.5941 105.334 78.9119 104.653C80.5492 103.806 82.6354 103 85.0822 103C87.51 103 89.6161 103.794 91.2724 104.629C92.729 105.363 94.1584 106.303 95.3265 107.071C95.4551 107.155 95.5804 107.238 95.7023 107.318C98.5514 109.184 100.15 110 101.644 110C102.709 110 104.666 109.373 106.949 108.049C109.218 106.734 110.711 105.378 111.025 104.967C112.701 102.771 115.838 102.35 118.033 104.025Z" fill="white"/>
</g>
<defs>
<filter id="filter0_d_1506_812" x="20.9999" y="43.9998" width="166.5" height="114.501" filterUnits="userSpaceOnUse" color-interpolation-filters="sRGB">
<feFlood flood-opacity="0" result="BackgroundImageFix"/>
<feColorMatrix in="SourceAlpha" type="matrix" values="0 0 0 0 0 0 0 0 0 0 0 0 0 0 0 0 0 0 127 0" result="hardAlpha"/>
<feOffset dx="4" dy="2"/>
<feGaussianBlur stdDeviation="7.5"/>
<feComposite in2="hardAlpha" operator="out"/>
<feColorMatrix type="matrix" values="0 0 0 0 1 0 0 0 0 1 0 0 0 0 1 0 0 0 0.596 0"/>
<feBlend mode="normal" in2="BackgroundImageFix" result="effect1_dropShadow_1506_812"/>
<feBlend mode="normal" in="SourceGraphic" in2="effect1_dropShadow_1506_812" result="shape"/>
</filter>
</defs>
</svg>

<svg xmlns="http://www.w3.org/2000/svg" width="200" height="200" fill="none"><g fill="#fff" fill-rule="evenodd" clip-rule="evenodd" filter="url(#a)"><path d="M98.555 91.913c-2.234.865-4.117 1.927-5.172 2.672a5 5 0 1 1-5.766-8.17c1.778-1.255 4.395-2.693 7.328-3.828C97.858 81.46 101.414 80.5 105 80.5c4.406 0 7.333 1.853 9.253 3.069l.313.197c1.792 1.126 2.894 1.734 4.934 1.734 2.254 0 4.108-.769 6.514-1.972q.303-.152.649-.33c2.09-1.07 5.27-2.698 8.837-2.698 3.631 0 6.931 1.671 9.093 2.766l.518.262c2.58 1.29 4.219 1.972 5.889 1.972 1.224 0 3.18-.514 5.289-1.447.99-.438 1.885-.912 2.588-1.34.35-.213.629-.4.833-.55.186-.136.262-.206.262-.206l-.001.001a5 5 0 0 1 7.065 7.078c-1.492 1.49-4.167 3.04-6.7 4.161-2.599 1.15-6.06 2.303-9.336 2.303-4.306 0-7.901-1.798-10.32-3.008l-.041-.02c-2.87-1.435-4.074-1.972-5.139-1.972-1.041 0-2.059.495-5.014 1.972-2.594 1.297-6.24 3.028-10.986 3.028-4.96 0-8.066-1.892-10.254-3.266-2.069-1.3-2.816-1.734-4.246-1.734-1.914 0-4.191.54-6.445 1.413M88.055 137.913c-2.234.865-4.117 1.927-5.172 2.672a5 5 0 0 1-5.766-8.17c1.778-1.255 4.395-2.693 7.328-3.828 2.913-1.127 6.47-2.087 10.055-2.087 4.406 0 7.333 1.853 9.253 3.069l.313.197c1.792 1.126 2.894 1.734 4.934 1.734 2.254 0 4.108-.769 6.514-1.972q.303-.152.649-.33c2.09-1.07 5.27-2.698 8.837-2.698 3.631 0 6.931 1.672 9.093 2.767l.518.261c2.58 1.29 4.219 1.972 5.889 1.972 1.224 0 3.18-.514 5.289-1.447.99-.438 1.885-.912 2.588-1.34.35-.213.629-.4.833-.55.186-.136.262-.206.262-.206l-.001.001a5.001 5.001 0 0 1 7.065 7.078c-1.492 1.491-4.167 3.041-6.7 4.161-2.599 1.15-6.06 2.303-9.336 2.303-4.306 0-7.901-1.798-10.32-3.008l-.041-.02c-2.87-1.435-4.074-1.972-5.139-1.972-1.041 0-2.059.495-5.014 1.972-2.594 1.297-6.24 3.028-10.986 3.028-4.96 0-8.066-1.892-10.254-3.266-2.069-1.3-2.815-1.734-4.246-1.734-1.914 0-4.191.54-6.445 1.413M144.129 58.1a5 5 0 0 1 .771 7.03c-1.532 1.908-4.433 4.035-7.313 5.623-2.882 1.59-6.826 3.247-10.628 3.247-4.943 0-9.017-2.54-11.672-4.195l-.099-.062-.333-.207c-1.339-.835-2.346-1.464-3.326-1.933-1.018-.488-1.616-.603-1.981-.603-.347 0-.897.104-1.865.58-.857.422-1.705.954-2.847 1.67q-.37.234-.788.493C101.196 71.522 97.045 74 91.575 74c-5.732 0-9.255-2.718-11.612-4.563C77.542 67.54 76.735 67 75.288 67c-2.047 0-4.549.725-7.095 1.953-2.507 1.21-4.651 2.71-5.89 3.801a5 5 0 0 1-6.606-7.508c1.944-1.71 4.854-3.709 8.15-5.3C67.107 58.376 71.157 57 75.288 57c5.07 0 8.387 2.623 10.467 4.269l.374.294C88.24 63.218 89.444 64 91.575 64c2.393 0 4.42-1.021 7.185-2.743l.62-.39c1.144-.72 2.521-1.587 3.889-2.26 1.7-.836 3.818-1.607 6.279-1.607 2.443 0 4.583.76 6.303 1.585 1.513.725 3 1.655 4.231 2.425l.395.247c2.963 1.846 4.747 2.743 6.482 2.743 1.252 0 3.393-.676 5.799-2.003 2.41-1.33 4.001-2.701 4.342-3.126a5 5 0 0 1 7.029-.77M118.033 104.025a5 5 0 0 1 .942 7.008c-1.467 1.922-4.248 4.066-7.01 5.668-2.747 1.592-6.578 3.299-10.321 3.299-4.835 0-8.794-2.595-11.295-4.235l-.127-.083-.31-.203c-1.281-.84-2.225-1.459-3.14-1.92-.948-.478-1.447-.559-1.69-.559-.224 0-.676.069-1.576.535-.799.413-1.59.935-2.675 1.651l-.755.496C77.377 117.45 73.339 120 67.986 120c-5.626 0-9.068-2.809-11.292-4.64-2.342-1.928-3.009-2.36-4.2-2.36-1.843 0-4.153.691-6.554 1.909-2.357 1.195-4.378 2.682-5.545 3.762a5 5 0 0 1-6.79-7.342c1.86-1.72 4.647-3.733 7.811-5.338 3.12-1.582 7.043-2.991 11.077-2.991 4.985 0 8.234 2.706 10.193 4.338l.364.302c2.028 1.669 3.083 2.36 4.936 2.36 2.127 0 3.966-.95 6.61-2.682l.584-.386c1.088-.72 2.414-1.598 3.732-2.279 1.637-.847 3.723-1.653 6.17-1.653 2.428 0 4.534.794 6.19 1.629 1.457.734 2.886 1.674 4.054 2.442q.194.127.376.247c2.85 1.866 4.448 2.682 5.942 2.682 1.065 0 3.022-.627 5.305-1.951 2.269-1.315 3.762-2.671 4.076-3.082a5 5 0 0 1 7.008-.942"/></g><defs><filter id="a" width="166.5" height="114.501" x="21" y="44" color-interpolation-filters="sRGB" filterUnits="userSpaceOnUse"><feFlood flood-opacity="0" result="BackgroundImageFix"/><feColorMatrix in="SourceAlpha" result="hardAlpha" values="0 0 0 0 0 0 0 0 0 0 0 0 0 0 0 0 0 0 127 0"/><feOffset dx="4" dy="2"/><feGaussianBlur stdDeviation="7.5"/><feComposite in2="hardAlpha" operator="out"/><feColorMatrix values="0 0 0 0 1 0 0 0 0 1 0 0 0 0 1 0 0 0 0.596 0"/><feBlend in2="BackgroundImageFix" result="effect1_dropShadow_1506_812"/><feBlend in="SourceGraphic" in2="effect1_dropShadow_1506_812" result="shape"/></filter></defs></svg>
